file/illustrator.svg

<svg clip-rule="evenodd" fill-rule="evenodd" stroke-linejoin="round" stroke-miterlimit="1.41421" viewBox="0 0 560 400" xmlns="http://www.w3.org/2000/svg" xmlns:xlink="http://www.w3.org/1999/xlink"><radialGradient id="a" cx="97.71" cy="81.29" gradientUnits="userSpaceOnUse" r="143.43"><stop offset="0" stop-color="#360100" stop-opacity=".85"/><stop offset=".77" stop-color="#360100"/><stop offset="1" stop-color="#360100"/></radialGradient><g transform="matrix(1.125 0 0 1.125 145 68.375)"><path d="m10 10h220v214h-220z" fill="url(#a)"/><g fill="#f37021"><path d="m0 0v234h240v-234zm10 10h220v214h-220z"/><path d="m83.25 132.5-7.92 30c-.16.83-.49 1-1.48 1h-14.69c-1 0-1.15-.33-1-1.48l28.39-99.45c.5-1.82.83-3.38 1-8.33 0-.66.33-1 .83-1h20.95c.66 0 1 .16 1.16 1l31.84 107.94c.17.82 0 1.32-.82 1.32h-16.51c-.83 0-1.32-.19-1.49-.85l-8.25-30.15zm27.89-16.25c-2.81-11.06-9.41-35.29-11.88-47h-.17c-2.09 11.75-7.42 31.49-11.55 47zm45-55.58c0-6.43 4.46-10.23 10.23-10.23 6.11 0 10.23 4.13 10.23 10.23 0 6.6-4.29 10.23-10.39 10.23-5.95 0-10.08-3.63-10.08-10.23zm1.12 22.73c0-.82.33-1.15 1.16-1.15h15.68c.82 0 1.15.33 1.15 1.15v78.94c0 .83-.16 1.16-1.15 1.16h-15.53c-1 0-1.32-.5-1.32-1.32z"/></g></g></svg>

<?xml version="1.0" encoding="UTF-8" standalone="no"?>
<!DOCTYPE svg PUBLIC "-//W3C//DTD SVG 1.1//EN" "http://www.w3.org/Graphics/SVG/1.1/DTD/svg11.dtd">
<svg width="100%" height="100%" viewBox="0 0 560 400" version="1.1" xmlns="http://www.w3.org/2000/svg" xmlns:xlink="http://www.w3.org/1999/xlink" xml:space="preserve" xmlns:serif="http://www.serif.com/" style="fill-rule:evenodd;clip-rule:evenodd;stroke-linejoin:round;stroke-miterlimit:1.41421;">
    <g transform="matrix(1.125,0,0,1.125,145,68.375)">
        <rect x="10" y="10" width="220" height="214" style="fill:url(#_Radial1);"/>
        <path d="M0,0L0,234L240,234L240,0L0,0ZM10,10L230,10L230,224L10,224L10,10Z" style="fill:rgb(243,112,33);"/>
        <path d="M83.25,132.5L75.33,162.5C75.17,163.33 74.84,163.5 73.85,163.5L59.16,163.5C58.16,163.5 58.01,163.17 58.16,162.02L86.55,62.57C87.05,60.75 87.38,59.19 87.55,54.24C87.55,53.58 87.88,53.24 88.38,53.24L109.33,53.24C109.99,53.24 110.33,53.4 110.49,54.24L142.33,162.18C142.5,163 142.33,163.5 141.51,163.5L125,163.5C124.17,163.5 123.68,163.31 123.51,162.65L115.26,132.5L83.25,132.5ZM111.14,116.25C108.33,105.19 101.73,80.96 99.26,69.25L99.09,69.25C97,81 91.67,100.74 87.54,116.25L111.14,116.25ZM156.14,60.67C156.14,54.24 160.6,50.44 166.37,50.44C172.48,50.44 176.6,54.57 176.6,60.67C176.6,67.27 172.31,70.9 166.21,70.9C160.26,70.9 156.13,67.27 156.13,60.67L156.14,60.67ZM157.26,83.4C157.26,82.58 157.59,82.25 158.42,82.25L174.1,82.25C174.92,82.25 175.25,82.58 175.25,83.4L175.25,162.34C175.25,163.17 175.09,163.5 174.1,163.5L158.57,163.5C157.57,163.5 157.25,163 157.25,162.18L157.26,83.4Z" style="fill:rgb(243,112,33);"/>
    </g>
    <defs>
        <radialGradient id="_Radial1" cx="0" cy="0" r="1" gradientUnits="userSpaceOnUse" gradientTransform="matrix(143.43,0,0,143.43,97.71,81.29)"><stop offset="0" style="stop-color:rgb(54,1,0);stop-opacity:0.85"/><stop offset="0.77" style="stop-color:rgb(54,1,0);stop-opacity:1"/><stop offset="1" style="stop-color:rgb(54,1,0);stop-opacity:1"/></radialGradient>
    </defs>
</svg>
